; generated by PrusaSlicer 2.5.0+win64 on 2022-11-05 at 17:29:48 UTC

; 

; external perimeters extrusion width = 0.45mm
; perimeters extrusion width = 0.45mm
; infill extrusion width = 0.45mm
; solid infill extrusion width = 0.45mm
; top infill extrusion width = 0.40mm
; support material extrusion width = 0.35mm
; first layer extrusion width = 0.42mm

M73 P0 R59
M73 Q0 S59
M201 X1000 Y1000 Z200 E5000 ; sets maximum accelerations, mm/sec^2
M203 X200 Y200 Z12 E120 ; sets maximum feedrates, mm / sec
M204 P1250 R1250 T1250 ; sets acceleration (P, T) and retract acceleration (R), mm/sec^2
M205 X8.00 Y8.00 Z0.40 E4.50 ; sets the jerk limits, mm/sec
M205 S0 T0 ; sets the minimum extruding and travel feed rate, mm/sec
M107
;TYPE:Custom
M862.3 P "MK3S" ; printer model check
M862.1 P0.4 ; nozzle diameter check
M115 U3.10.1 ; tell printer latest fw version
G90 ; use absolute coordinates
M83 ; extruder relative mode
M104 S215 ; set extruder temp
M140 S60 ; set bed temp
M190 S60 ; wait for bed temp
M109 S215 ; wait for extruder temp
G28 W ; home all without mesh bed level
G80 ; mesh bed leveling
G1 Z0.2 F720
G1 Y-3 F1000 ; go outside print area
G92 E0
G1 X60 E9 F1000 ; intro line
G1 X100 E12.5 F1000 ; intro line
G92 E0
M221 S95

; Don't change E values below. Excessive value can damage the printer.

M907 E538 ; set extruder motor current
G21 ; set units to millimeters
G90 ; use absolute coordinates
M83 ; use relative distances for extrusion
M900 K0.05 ; Filament gcode LA 1.5
M900 K30 ; Filament gcode LA 1.0
M107
;LAYER_CHANGE
;Z:0.2
;HEIGHT:0.2
;BEFORE_LAYER_CHANGE
G92 E0.0
;0.2


G1 E-.8 F2100
G1 Z.4 F720
;AFTER_LAYER_CHANGE
;0.2
G1 X82.925 Y79.486 F10800
G1 Z.2 F720
G1 E.8 F2100
M204 S800
;TYPE:Skirt/Brim
;WIDTH:0.42
G1 F1200
G1 X83.939 Y78.81 E.03822
G1 X85.094 Y78.419 E.03822
G1 X86 Y78.321 E.02858
G1 X164.31 Y78.341 E2.45536
G1 X164.906 Y78.419 E.01885
G1 X166.061 Y78.81 E.03822
G1 X167.075 Y79.486 E.03822
G1 X167.514 Y79.925 E.01946
G1 X167.88 Y80.402 E.01885
G1 X168.42 Y81.494 E.03822
G1 X168.581 Y82.094 E.01946
G1 X168.679 Y83 E.02858
G1 X168.659 Y117.31 E1.07577
G1 X168.42 Y118.506 E.03822
G1 X167.88 Y119.598 E.03822
G1 X167.075 Y120.514 E.03822
G1 X166.061 Y121.19 E.03822
G1 X165.125 Y121.541 E.03134
G1 X160.369 Y122.628 E.15296
G1 X159.837 Y122.687 E.01679
G1 X90.265 Y122.604 E2.18139
G1 X84.924 Y121.552 E.17067
G1 X83.939 Y121.19 E.03291
G1 X82.925 Y120.514 E.03822
G1 X82.486 Y120.075 E.01946
G1 X81.81 Y119.061 E.03822
G1 X81.419 Y117.906 E.03822
G1 X81.321 Y117 E.02858
M73 P0 R58
G1 X81.321 Y83 E1.06605
G1 X81.419 Y82.094 E.02858
G1 X81.58 Y81.494 E.01946
G1 X82.12 Y80.402 E.03822
G1 X82.885 Y79.531 E.03634
M204 S1000
; printing object AHM_Case v3.obj id:0 copy 0
;WIPE_START
G1 F8640
G1 X83.939 Y78.81 E-.29487
G1 X85.094 Y78.419 E-.28147
G1 X85.885 Y78.333 E-.18366
;WIPE_END
G1 E-.04 F2100
G1 Z.6 F720
G1 X90.337 Y88.794 F10800
G1 Z.2 F720
G1 E.8 F2100
M204 S800
;TYPE:Support material
G1 F1200
G1 X89.73 Y88.794 E.01904
G1 X89.73 Y85.23 E.11175
G1 X90.337 Y85.23 E.01904
G1 X90.337 Y88.737 E.10997
M204 S1000
;WIPE_START
G1 F8640
G1 X90.337 Y85.446 E-.76
;WIPE_END
G1 E-.04 F2100
G1 Z.6 F720
G1 X160.27 Y88.794 F10800
G1 Z.2 F720
G1 E.8 F2100
M204 S800
G1 F1200
G1 X159.663 Y88.794 E.01904
G1 X159.663 Y85.23 E.11175
G1 X160.27 Y85.23 E.01904
G1 X160.27 Y88.737 E.10997
M204 S1000
;WIPE_START
G1 F8640
G1 X160.27 Y85.446 E-.76
;WIPE_END
G1 E-.04 F2100
G1 Z.6 F720
G1 X164.4 Y82.307 F10800
G1 Z.2 F720
G1 E.8 F2100
M204 S800
;TYPE:Perimeter
;WIDTH:0.419999
G1 F1200
G1 X164.63 Y82.517 E.00976
G1 X164.773 Y82.793 E.00976
G1 X164.807 Y83.111 E.01004
G1 X164.807 Y116.948 E1.06094
G1 X164.733 Y117.304 E.01138
G1 X164.566 Y117.566 E.00976
G1 X164.304 Y117.733 E.00976
G1 X163.947 Y117.808 E.01142
G1 X159.687 Y117.82 E.13357
G1 X159.559 Y117.853 E.00415
G1 X90.793 Y117.853 E2.1561
G1 X90.319 Y117.82 E.01491
G1 X86.053 Y117.808 E.13376
G1 X85.696 Y117.733 E.01142
G1 X85.434 Y117.566 E.00976
G1 X85.267 Y117.304 E.00976
G1 X85.193 Y116.948 E.01138
G1 X85.193 Y83.052 E1.06281
G1 X85.267 Y82.696 E.01138
G1 X85.434 Y82.434 E.00976
G1 X85.696 Y82.267 E.00976
G1 X86.052 Y82.193 E.01138
G1 X163.125 Y82.202 E2.41659
G1 X164.072 Y82.209 E.02969
G1 X164.343 Y82.289 E.00886
M204 S1000
G1 X164.591 Y81.977 F10800
M204 S800
;TYPE:External perimeter
G1 F1200
G1 X164.835 Y82.165 E.00967
G1 X165.023 Y82.41 E.00967
G1 X165.141 Y82.694 E.00967
G1 X165.185 Y83.111 E.01314
G1 X165.185 Y116.886 E1.05898
G1 X165.141 Y117.306 E.01323
M73 P1 R58
M73 Q1 S59
G1 X165.023 Y117.59 E.00967
G1 X164.835 Y117.835 E.00967
G1 X164.591 Y118.023 E.00967
G1 X164.306 Y118.141 E.00967
G1 X163.972 Y118.185 E.01054
G1 X159.688 Y118.197 E.13433
G1 X159.604 Y118.23 E.00283
G1 X90.408 Y118.23 E2.1696
G1 X90.318 Y118.197 E.00301
G1 X86.111 Y118.185 E.13191
G1 X85.694 Y118.141 E.01313
G1 X85.409 Y118.023 E.00967
G1 X85.165 Y117.835 E.00967
G1 X84.977 Y117.591 E.00967
G1 X84.859 Y117.306 E.00967
G1 X84.815 Y116.973 E.01052
G1 X84.815 Y83.112 E1.0617
G1 X84.859 Y82.694 E.01316
G1 X84.977 Y82.41 E.00967
G1 X85.165 Y82.165 E.00967
G1 X85.409 Y81.977 E.00967
G1 X85.694 Y81.859 E.00967
G1 X86.027 Y81.815 E.01052
G1 X163.898 Y81.825 E2.44159
G1 X164.306 Y81.859 E.01283
G1 X164.535 Y81.954 E.00779
M204 S1000
G1 X164.595 Y82.285 F10800
;WIPE_START
G1 F8640
G1 X164.835 Y82.165 E-.08465
G1 X165.023 Y82.41 E-.07119
G1 X165.141 Y82.694 E-.07119
G1 X165.185 Y83.111 E-.09678
G1 X165.185 Y85 E-.4362
;WIPE_END
G1 E-.04 F2100
G1 Z.6 F720
G1 X161.529 Y84.472 F10800
G1 Z.2 F720
G1 E.8 F2100
M204 S800
;TYPE:Perimeter
G1 F1200
G1 X161.537 Y111.471 E.84653
G1 X161.496 Y111.682 E.00672
G1 X161.391 Y111.851 E.00627
G1 X161.115 Y112.019 E.01011
G1 X160.973 Y112.037 E.00449
G1 X89.027 Y112.037 E2.25582
G1 X88.747 Y111.962 E.0091
G1 X88.609 Y111.851 E.00553
G1 X88.471 Y111.569 E.00985
G1 X88.463 Y84.529 E.84784
G1 X88.487 Y84.364 E.0052
G1 X88.579 Y84.185 E.00631
G1 X88.765 Y84.028 E.00763
G1 X89.029 Y83.963 E.00851
G1 X160.972 Y83.963 E2.25572
G1 X161.236 Y84.029 E.00854
G1 X161.422 Y84.187 E.00765
G1 X161.52 Y84.413 E.00774
M204 S1000
G1 X161.16 Y84.529 F10800
M204 S800
;TYPE:External perimeter
G1 F1200
G1 X161.16 Y111.471 E.84477
G1 X161.111 Y111.598 E.00426
G1 X160.972 Y111.66 E.00478
G1 X89.028 Y111.66 E2.25575
G1 X88.889 Y111.598 E.00477
M73 Q1 S58
G1 X88.84 Y111.471 E.00426
G1 X88.84 Y84.529 E.84477
G1 X88.879 Y84.414 E.00379
G1 X89.029 Y84.34 E.00524
G1 X160.971 Y84.34 E2.25572
G1 X161.122 Y84.415 E.00526
G1 X161.141 Y84.472 E.00189
M204 S1000
G1 X161.546 Y84.632 F10800
;WIPE_START
G1 F8640
G1 X161.143 Y87.763 E-.76
;WIPE_END
G1 E-.04 F2100
G1 Z.6 F720
G1 X163.51 Y82.315 F10800
G1 Z.2 F720
G1 E.8 F2100
M204 S800
;TYPE:Solid infill
;WIDTH:0.421357
G1 F1200
G1 X164.525 Y83.33 E.04517
G1 X164.525 Y83.865 E.01684
G1 X163.144 Y82.484 E.06143
G1 X162.609 Y82.484 E.01684
G1 X164.525 Y84.4 E.08525
G1 X164.525 Y84.935 E.01684
G1 X162.074 Y82.484 E.10907
G1 X161.538 Y82.484 E.01684
G1 X164.525 Y85.47 E.13289
G1 X164.525 Y86.006 E.01684
G1 X161.003 Y82.484 E.15671
G1 X160.468 Y82.484 E.01684
G1 X164.525 Y86.541 E.18053
G1 X164.525 Y87.076 E.01684
G1 X159.933 Y82.484 E.20435
G1 X159.397 Y82.484 E.01684
G1 X160.594 Y83.68 E.05323
G1 X160.058 Y83.68 E.01684
G1 X158.862 Y82.484 E.05323
G1 X158.327 Y82.484 E.01684
G1 X159.523 Y83.68 E.05324
G1 X158.988 Y83.68 E.01684
G1 X157.792 Y82.484 E.05324
G1 X157.256 Y82.484 E.01684
G1 X158.453 Y83.68 E.05324
G1 X157.918 Y83.68 E.01684
G1 X156.721 Y82.484 E.05325
G1 X156.186 Y82.484 E.01684
G1 X157.382 Y83.68 E.05325
G1 X156.847 Y83.68 E.01684
G1 X155.651 Y82.484 E.05325
G1 X155.115 Y82.483 E.01684
G1 X156.312 Y83.68 E.05325
G1 X155.777 Y83.68 E.01684
G1 X154.58 Y82.483 E.05326
G1 X154.045 Y82.483 E.01684
G1 X155.242 Y83.68 E.05326
G1 X154.706 Y83.68 E.01684
G1 X153.51 Y82.483 E.05326
G1 X152.974 Y82.483 E.01684
G1 X154.171 Y83.68 E.05326
G1 X153.636 Y83.68 E.01684
G1 X152.439 Y82.483 E.05327
G1 X151.904 Y82.483 E.01684
G1 X153.101 Y83.68 E.05327
G1 X152.566 Y83.68 E.01684
G1 X151.369 Y82.483 E.05327
G1 X150.833 Y82.483 E.01684
G1 X152.031 Y83.68 E.05328
G1 X151.495 Y83.68 E.01684
G1 X150.298 Y82.483 E.05328
G1 X149.763 Y82.483 E.01684
G1 X150.96 Y83.68 E.05328
G1 X150.425 Y83.68 E.01684
G1 X149.228 Y82.483 E.05328
G1 X148.692 Y82.483 E.01684
G1 X149.89 Y83.68 E.05329
G1 X149.355 Y83.68 E.01684
G1 X148.157 Y82.483 E.05329
G1 X147.622 Y82.483 E.01684
G1 X148.819 Y83.68 E.05329
G1 X148.284 Y83.68 E.01684
M73 P2 R58
G1 X147.087 Y82.483 E.0533
G1 X146.551 Y82.482 E.01684
G1 X147.749 Y83.68 E.0533
G1 X147.214 Y83.68 E.01684
G1 X146.016 Y82.482 E.0533
M73 Q2 S58
G1 X145.481 Y82.482 E.01684
G1 X146.679 Y83.68 E.0533
G1 X146.143 Y83.68 E.01684
G1 X144.946 Y82.482 E.05331
G1 X144.41 Y82.482 E.01684
G1 X145.608 Y83.68 E.05331
G1 X145.073 Y83.68 E.01684
G1 X143.875 Y82.482 E.05331
G1 X143.34 Y82.482 E.01684
G1 X144.538 Y83.68 E.05332
G1 X144.003 Y83.68 E.01684
G1 X142.805 Y82.482 E.05332
G1 X142.269 Y82.482 E.01684
G1 X143.467 Y83.68 E.05332
G1 X142.932 Y83.68 E.01684
G1 X141.734 Y82.482 E.05332
G1 X141.199 Y82.482 E.01684
G1 X142.397 Y83.68 E.05333
G1 X141.862 Y83.68 E.01684
G1 X140.664 Y82.482 E.05333
G1 X140.128 Y82.482 E.01684
G1 X141.327 Y83.68 E.05333
G1 X140.792 Y83.68 E.01684
G1 X139.593 Y82.482 E.05333
G1 X139.058 Y82.482 E.01684
G1 X140.256 Y83.68 E.05334
G1 X139.721 Y83.68 E.01684
G1 X138.523 Y82.482 E.05334
G1 X137.987 Y82.481 E.01684
G1 X139.186 Y83.68 E.05334
G1 X138.651 Y83.68 E.01684
G1 X137.452 Y82.481 E.05335
G1 X136.917 Y82.481 E.01684
G1 X138.116 Y83.68 E.05335
G1 X137.58 Y83.68 E.01684
G1 X136.382 Y82.481 E.05335
G1 X135.846 Y82.481 E.01684
G1 X137.045 Y83.68 E.05335
G1 X136.51 Y83.68 E.01684
G1 X135.311 Y82.481 E.05336
G1 X134.776 Y82.481 E.01684
G1 X135.975 Y83.68 E.05336
G1 X135.44 Y83.68 E.01684
G1 X134.241 Y82.481 E.05336
G1 X133.705 Y82.481 E.01684
G1 X134.904 Y83.68 E.05337
G1 X134.369 Y83.68 E.01684
G1 X133.17 Y82.481 E.05337
G1 X132.635 Y82.481 E.01684
G1 X133.834 Y83.68 E.05337
G1 X133.299 Y83.68 E.01684
G1 X132.099 Y82.481 E.05337
G1 X131.564 Y82.481 E.01684
G1 X132.764 Y83.68 E.05338
G1 X132.228 Y83.68 E.01684
G1 X131.029 Y82.481 E.05338
G1 X130.494 Y82.481 E.01684
G1 X131.693 Y83.68 E.05338
G1 X131.158 Y83.68 E.01684
G1 X129.958 Y82.48 E.05338
G1 X129.423 Y82.48 E.01684
G1 X130.623 Y83.68 E.05339
G1 X130.088 Y83.68 E.01684
G1 X128.888 Y82.48 E.05339
G1 X128.353 Y82.48 E.01684
G1 X129.553 Y83.68 E.05339
G1 X129.017 Y83.68 E.01684
G1 X127.817 Y82.48 E.0534
G1 X127.282 Y82.48 E.01684
G1 X128.482 Y83.68 E.0534
G1 X127.947 Y83.68 E.01684
G1 X126.747 Y82.48 E.0534
G1 X126.212 Y82.48 E.01684
G1 X127.412 Y83.68 E.0534
G1 X126.877 Y83.68 E.01684
G1 X125.676 Y82.48 E.05341
G1 X125.141 Y82.48 E.01684
G1 X126.341 Y83.68 E.05341
G1 X125.806 Y83.68 E.01684
G1 X124.606 Y82.48 E.05341
G1 X124.071 Y82.48 E.01684
G1 X125.271 Y83.68 E.05342
G1 X124.736 Y83.68 E.01684
G1 X123.535 Y82.48 E.05342
G1 X123 Y82.48 E.01684
G1 X124.201 Y83.68 E.05342
G1 X123.665 Y83.68 E.01684
G1 X122.465 Y82.48 E.05342
G1 X121.93 Y82.48 E.01684
G1 X123.13 Y83.68 E.05343
G1 X122.595 Y83.68 E.01684
G1 X121.394 Y82.479 E.05343
G1 X120.859 Y82.479 E.01684
G1 X122.06 Y83.68 E.05343
G1 X121.525 Y83.68 E.01684
G1 X120.324 Y82.479 E.05344
G1 X119.789 Y82.479 E.01684
G1 X120.989 Y83.68 E.05344
G1 X120.454 Y83.68 E.01684
G1 X119.253 Y82.479 E.05344
G1 X118.718 Y82.479 E.01684
M73 P2 R57
G1 X119.919 Y83.68 E.05344
G1 X119.384 Y83.68 E.01684
G1 X118.183 Y82.479 E.05345
G1 X117.648 Y82.479 E.01684
G1 X118.849 Y83.68 E.05345
G1 X118.314 Y83.68 E.01684
G1 X117.112 Y82.479 E.05345
G1 X116.577 Y82.479 E.01684
G1 X117.778 Y83.68 E.05345
G1 X117.243 Y83.68 E.01684
G1 X116.042 Y82.479 E.05346
G1 X115.507 Y82.479 E.01684
G1 X116.708 Y83.68 E.05346
G1 X116.173 Y83.68 E.01684
G1 X114.971 Y82.479 E.05346
G1 X114.436 Y82.479 E.01684
G1 X115.638 Y83.68 E.05347
G1 X115.102 Y83.68 E.01684
G1 X113.901 Y82.479 E.05347
G1 X113.366 Y82.479 E.01684
G1 X114.567 Y83.68 E.05347
G1 X114.032 Y83.68 E.01684
G1 X112.83 Y82.478 E.05347
G1 X112.295 Y82.478 E.01684
G1 X113.497 Y83.68 E.05348
G1 X112.962 Y83.68 E.01684
G1 X111.76 Y82.478 E.05348
G1 X111.225 Y82.478 E.01684
G1 X112.426 Y83.68 E.05348
G1 X111.891 Y83.68 E.01684
G1 X110.689 Y82.478 E.05349
G1 X110.154 Y82.478 E.01684
G1 X111.356 Y83.68 E.05349
G1 X110.821 Y83.68 E.01684
G1 X109.619 Y82.478 E.05349
G1 X109.084 Y82.478 E.01684
G1 X110.286 Y83.68 E.05349
G1 X109.75 Y83.68 E.01684
G1 X108.548 Y82.478 E.0535
G1 X108.013 Y82.478 E.01684
G1 X109.215 Y83.68 E.0535
G1 X108.68 Y83.68 E.01684
G1 X107.478 Y82.478 E.0535
G1 X106.943 Y82.478 E.01684
G1 X108.145 Y83.68 E.05351
G1 X107.61 Y83.68 E.01684
G1 X106.407 Y82.478 E.05351
G1 X105.872 Y82.478 E.01684
G1 X107.075 Y83.68 E.05351
G1 X106.539 Y83.68 E.01684
G1 X105.337 Y82.478 E.05351
G1 X104.802 Y82.478 E.01684
G1 X106.004 Y83.68 E.05352
G1 X105.469 Y83.68 E.01684
G1 X104.266 Y82.477 E.05352
G1 X103.731 Y82.477 E.01684
G1 X104.934 Y83.68 E.05352
G1 X104.399 Y83.68 E.01684
G1 X103.196 Y82.477 E.05352
G1 X102.661 Y82.477 E.01684
G1 X103.863 Y83.68 E.05353
G1 X103.328 Y83.68 E.01684
G1 X102.125 Y82.477 E.05353
G1 X101.59 Y82.477 E.01684
G1 X102.793 Y83.68 E.05353
G1 X102.258 Y83.68 E.01684
G1 X101.055 Y82.477 E.05354
G1 X100.52 Y82.477 E.01684
G1 X101.723 Y83.68 E.05354
G1 X101.187 Y83.68 E.01684
G1 X99.984 Y82.477 E.05354
G1 X99.449 Y82.477 E.01684
G1 X100.652 Y83.68 E.05354
G1 X100.117 Y83.68 E.01684
G1 X98.914 Y82.477 E.05355
G1 X98.379 Y82.477 E.01684
G1 X99.582 Y83.68 E.05355
G1 X99.047 Y83.68 E.01684
G1 X97.843 Y82.477 E.05355
G1 X97.308 Y82.477 E.01684
G1 X98.511 Y83.68 E.05356
G1 X97.976 Y83.68 E.01684
G1 X96.773 Y82.477 E.05356
G1 X96.238 Y82.477 E.01684
G1 X97.441 Y83.68 E.05356
G1 X96.906 Y83.68 E.01684
G1 X95.702 Y82.476 E.05356
G1 X95.167 Y82.476 E.01684
G1 X96.371 Y83.68 E.05357
G1 X95.836 Y83.68 E.01684
G1 X94.632 Y82.476 E.05357
G1 X94.096 Y82.476 E.01684
G1 X95.3 Y83.68 E.05357
G1 X94.765 Y83.68 E.01684
G1 X93.561 Y82.476 E.05357
G1 X93.026 Y82.476 E.01684
G1 X94.23 Y83.68 E.05358
G1 X93.695 Y83.68 E.01684
G1 X92.491 Y82.476 E.05358
G1 X91.955 Y82.476 E.01684
G1 X93.16 Y83.68 E.05358
G1 X92.624 Y83.68 E.01684
G1 X91.42 Y82.476 E.05359
G1 X90.885 Y82.476 E.01684
G1 X92.089 Y83.68 E.05359
G1 X91.554 Y83.68 E.01684
G1 X90.35 Y82.476 E.05359
G1 X89.814 Y82.476 E.01684
G1 X91.019 Y83.68 E.05359
G1 X90.484 Y83.68 E.01684
G1 X89.279 Y82.476 E.0536
G1 X88.744 Y82.476 E.01684
G1 X89.948 Y83.68 E.0536
G1 X89.413 Y83.68 E.01684
G1 X88.209 Y82.476 E.0536
G1 X87.673 Y82.476 E.01684
G1 X88.89 Y83.692 E.05413
G1 X88.63 Y83.778 E.00862
G1 X88.527 Y83.865 E.00422
G1 X87.138 Y82.475 E.06181
G1 X86.603 Y82.475 E.01684
G1 X88.281 Y84.153 E.07467
G1 X88.216 Y84.281 E.0045
G1 X88.18 Y84.588 E.00973
G1 X86.073 Y82.48 E.09379
G1 X85.866 Y82.503 E.00655
G1 X85.742 Y82.554 E.0042
G1 X85.668 Y82.611 E.00295
G1 X88.18 Y85.123 E.1118
G1 X88.18 Y85.658 E.01684
G1 X85.489 Y82.967 E.11976
G1 X85.475 Y83.489 E.01642
G1 X88.18 Y86.193 E.12037
G1 X88.18 Y86.729 E.01684
G1 X85.475 Y84.024 E.12037
G1 X85.475 Y84.559 E.01684
G1 X88.18 Y87.264 E.12037
G1 X88.18 Y87.799 E.01684
G1 X85.475 Y85.094 E.12037
G1 X85.475 Y85.629 E.01684
G1 X88.18 Y88.334 E.12037
G1 X88.18 Y88.869 E.01684
G1 X85.475 Y86.165 E.12037
G1 X85.475 Y86.7 E.01684
G1 X88.18 Y89.404 E.12037
G1 X88.18 Y89.94 E.01684
G1 X85.475 Y87.235 E.12037
G1 X85.475 Y87.77 E.01684
G1 X88.18 Y90.475 E.12037
G1 X88.18 Y91.01 E.01684
G1 X85.475 Y88.305 E.12037
G1 X85.475 Y88.84 E.01684
G1 X88.18 Y91.545 E.12037
G1 X88.18 Y92.08 E.01684
G1 X85.475 Y89.376 E.12037
G1 X85.475 Y89.911 E.01684
G1 X88.18 Y92.616 E.12037
G1 X88.18 Y93.151 E.01684
G1 X85.475 Y90.446 E.12037
G1 X85.475 Y90.981 E.01684
G1 X88.18 Y93.686 E.12037
G1 X88.18 Y94.221 E.01684
G1 X85.475 Y91.516 E.12037
G1 X85.475 Y92.052 E.01684
G1 X88.18 Y94.756 E.12037
G1 X88.18 Y95.292 E.01684
G1 X85.475 Y92.587 E.12037
G1 X85.475 Y93.122 E.01684
G1 X88.18 Y95.827 E.12037
G1 X88.18 Y96.362 E.01684
G1 X85.475 Y93.657 E.12037
G1 X85.475 Y94.192 E.01684
G1 X88.18 Y96.897 E.12037
G1 X88.18 Y97.432 E.01684
G1 X85.475 Y94.728 E.12037
